X: 339
%
U:~=!turn!
T: Lochiel's Awa' to France
C:Old set.
O:Scotland
B:Keith Norman MacDonald : "The Skye collection of the best reels & strathspeys extant" : 1887
Z:Ralph Palmer
R:Reel
M:C
L:1/8
K:E aeolian
g | eA A/2A/2A e2 dc | B>G G/2G/2G (B<d)d<g | e>A A/2A/2A e2 dc | BGAB gee :| g | (de)ga (bg)ab | gd d/2d/2d (gd)dg |
dega bgab | ge e/2e/2e {/a}(ge)eg | dfga bgab | gd d/2d/2d (gd)dg | .b.g.a.e degB | BA A/2A/2A (ge)e |]
W:Modern set by Neil Gow not so playable.


